packages/devextreme-scss/images/icons/material/servicebell.svg

<svg width="24" height="24" viewBox="0 0 24 24" fill="none" xmlns="http://www.w3.org/2000/svg">
<path d="M12 5C12.5304 5 13.0391 5.21071 13.4142 5.58579C13.7893 5.96086 14 6.46957 14 7C14 7.24 13.96 7.47 13.88 7.69C17.95 8.5 21 11.91 21 16H3C3 11.91 6.05 8.5 10.12 7.69C10.04 7.47 10 7.24 10 7C10 6.46957 10.2107 5.96086 10.5858 5.58579C10.9609 5.21071 11.4696 5 12 5ZM22 19H2V17H22V19ZM12 9.5C8.89 9.5 6.25 11.39 5.34 14H18.66C17.75 11.39 15.11 9.5 12 9.5Z" fill="black"/>
</svg>

<!-- Generated by IcoMoon.io -->
<svg version="1.1" xmlns="http://www.w3.org/2000/svg" width="24" height="24" viewBox="0 0 24 24">
<path d="M12 5c0.53 0 1.039 0.211 1.414 0.586s0.586 0.884 0.586 1.414c0 0.24-0.040 0.47-0.12 0.69 4.070 0.81 7.12 4.22 7.12 8.31h-18c0-4.090 3.050-7.5 7.12-8.31-0.080-0.22-0.12-0.45-0.12-0.69 0-0.53 0.211-1.039 0.586-1.414s0.884-0.586 1.414-0.586zM22 19h-20v-2h20v2zM12 9.5c-3.11 0-5.75 1.89-6.66 4.5h13.32c-0.91-2.61-3.55-4.5-6.66-4.5z"></path>
</svg>
